svgs/thin/file-music.svg

<svg xmlns="http://www.w3.org/2000/svg" viewBox="0 0 384 512"><!-- Font Awesome Pro 6.0.0-alpha2 by @fontawesome - https://fontawesome.com License - https://fontawesome.com/license (Commercial License) --><path d="M374.629 150.625L233.371 9.375C227.371 3.371 219.23 0 210.746 0H64C28.652 0 0 28.652 0 64V448C0 483.344 28.652 512 64 512H320C355.348 512 384 483.344 384 448V173.254C384 164.766 380.629 156.629 374.629 150.625ZM224 22.629L361.375 160H248C234.781 160 224 149.234 224 136V22.629ZM368 448C368 474.469 346.469 496 320 496H64C37.531 496 16 474.469 16 448V64C16 37.531 37.531 16 64 16H208V136C208 158.062 225.938 176 248 176H368V448ZM144 288V392.305C135.494 387.195 124.35 384 112 384C85.49 384 64 398.328 64 416S85.49 448 112 448S160 433.672 160 416V293.219L272 244.219V360.305C263.494 355.195 252.35 352 240 352C213.49 352 192 366.328 192 384S213.49 416 240 416S288 401.672 288 384V232C288 229.312 286.641 226.781 284.375 225.312C282.156 223.812 279.25 223.625 276.797 224.656L148.797 280.656C145.875 281.938 144 284.812 144 288ZM112 432C92.467 432 80 422.523 80 416S92.467 400 112 400C131.535 400 144 409.477 144 416S131.535 432 112 432ZM240 400C220.467 400 208 390.523 208 384S220.467 368 240 368C259.535 368 272 377.477 272 384S259.535 400 240 400Z"/></svg>

<svg xmlns="http://www.w3.org/2000/svg" viewBox="0 0 384 512"><!--! Font Awesome Pro 6.3.0 by @fontawesome - https://fontawesome.com License - https://fontawesome.com/license (Commercial License) Copyright 2023 Fonticons, Inc. --><path d="M374.6 150.6l-141.3-141.3C227.4 3.371 219.2 0 210.7 0H64C28.65 0 0 28.65 0 64l.0065 384c0 35.34 28.65 64 64 64H320c35.35 0 64-28.66 64-64V173.3C384 164.8 380.6 156.6 374.6 150.6zM224 22.63L361.4 160H248C234.8 160 224 149.2 224 136V22.63zM368 448c0 26.47-21.53 48-48 48H64c-26.47 0-48-21.53-48-48V64c0-26.47 21.53-48 48-48h144v120c0 22.06 17.94 40 40 40h120V448zM144 288v104.3C135.5 387.2 124.3 384 112 384C85.49 384 64 398.3 64 416s21.49 32 48 32S160 433.7 160 416V293.2l112-49v116.1C263.5 355.2 252.3 352 240 352c-26.51 0-48 14.33-48 32s21.49 32 48 32s48-14.33 48-32V232c0-2.688-1.359-5.219-3.625-6.688c-2.219-1.5-5.125-1.688-7.578-.6562l-128 56C145.9 281.9 144 284.8 144 288zM112 432c-19.53 0-32-9.477-32-16s12.47-16 32-16c19.54 0 32 9.477 32 16S131.5 432 112 432zM240 400c-19.53 0-32-9.477-32-16s12.47-16 32-16c19.54 0 32 9.477 32 16S259.5 400 240 400z"/></svg>
